media/img/icons/dark/expected.svg

<?xml version="1.0" encoding="UTF-8" standalone="no"?>
<svg
   width="16"
   height="16"
   viewBox="0 0 16 16"
   fill="currentColor"
   version="1.1"
   id="svg3356"
   sodipodi:docname="expected.svg"
   inkscape:version="1.2 (dc2aeda, 2022-05-15)"
   xmlns:inkscape="http://www.inkscape.org/namespaces/inkscape"
   xmlns:sodipodi="http://sodipodi.sourceforge.net/DTD/sodipodi-0.dtd"
   xmlns="http://www.w3.org/2000/svg"
   xmlns:svg="http://www.w3.org/2000/svg">
  <defs
     id="defs3360" />
  <sodipodi:namedview
     id="namedview3358"
     pagecolor="#ffffff"
     bordercolor="#666666"
     borderopacity="1.0"
     inkscape:showpageshadow="2"
     inkscape:pageopacity="0.0"
     inkscape:pagecheckerboard="0"
     inkscape:deskcolor="#d1d1d1"
     showgrid="false"
     inkscape:zoom="51.375"
     inkscape:cx="8.0291971"
     inkscape:cy="8"
     inkscape:window-width="1920"
     inkscape:window-height="972"
     inkscape:window-x="0"
     inkscape:window-y="25"
     inkscape:window-maximized="1"
     inkscape:current-layer="svg3356" />
  <path
     d="M13.893 13.558L10 6.006v-4h1v-1H9.994V1l-.456.005H5V2h1v3.952l-3.894 7.609A1 1 0 0 0 3 15.006h10a1 1 0 0 0 .893-1.448zm-7-7.15L7 6.193V2.036l2-.024v4.237l.11.215 1.827 3.542H5.049l1.844-3.598zM3 14.017l1.54-3.011h6.916l1.547 3L3 14.017z"
     id="path3354" />
  <path
     style="fill:#c5c5c5;stroke:#c5c5c5;stroke-width:0.0194647;fill-opacity:1;stroke-opacity:1"
     d="m 4.9927007,1.4984413 c 0,0.1653488 0,0.3306975 0,0.4960462 0.3341447,0.00344 0.6682889,0.0069 1.0024331,0.010379 0.00329,1.3115243 0.0066,2.6230485 0.00992,3.9345726 -1.3176837,2.5838904 -2.6534337,5.1587119 -3.9510722,7.7527369 -0.159418,0.460253 0.070415,1.018053 0.5225821,1.2132 0.3409561,0.164253 0.7275161,0.0802 1.0908602,0.102097 3.048766,8.8e-5 6.0976112,0.0086 9.1463251,-0.01013 0.23702,-0.0027 0.491012,0.01334 0.693566,-0.134448 0.373596,-0.213856 0.563173,-0.677283 0.462649,-1.092939 C 13.843412,13.439713 13.65667,13.13352 13.503975,12.814038 12.342104,10.537152 11.165618,8.2677668 9.9954734,5.9951311 9.9953792,4.6685014 9.9952651,3.3418718 9.9951312,2.0152421 c 0.3341438,-0.00344 0.6682888,-0.0069 1.0024328,-0.010379 0.0035,-0.3341442 0.0069,-0.6682885 0.01038,-1.0024331 -2.0050806,0 -4.0101622,0 -6.0152439,0 0,0.1653361 0,0.3306721 0,0.4960082 z m 4.0097324,2.6351885 c 0,0.7084348 0,1.4168695 0,2.1253041 0.6373349,1.240009 1.2872839,2.4869133 1.9173509,3.7223617 -1.9543422,0.02438 -3.9090613,0.00961 -5.8635568,0.013838 C 5.703049,8.733171 6.3498708,7.4712082 6.9966926,6.2092455 6.9970038,4.817518 6.9972954,3.4257906 6.9975669,2.0340631 c 0.6683907,0.00285 1.3366476,-0.012928 2.0048662,-0.025776 0,0.7084474 0,1.4168948 0,2.1253427 z M 7.9974149,11.017032 c 1.1540576,0 2.3081151,0 3.4621731,0 0.509733,0.992904 1.029216,1.980982 1.529045,2.978862 -3.2959029,0.01493 -6.5919663,0.01519 -9.887925,0.01046 -0.1631329,0.04019 -0.031453,-0.100816 -0.0052,-0.174812 0.4777186,-0.939296 0.9596338,-1.876449 1.4397739,-2.814508 1.154045,0 2.3080899,0 3.4621351,0 z"
     id="path3842" />
</svg>

<svg width="16" height="16" viewBox="0 0 16 16" fill="none" xmlns="http://www.w3.org/2000/svg">
<path d="M13.8929 13.558L9.99994 6.006V2.006H10.9999V1.006H9.99394V1L9.53794 1.005H4.99994V2H5.99994V5.952L2.10594 13.561C2.03023 13.7133 1.99465 13.8825 2.00254 14.0524C2.01044 14.2224 2.06156 14.3875 2.15106 14.5321C2.24057 14.6768 2.3655 14.7962 2.51404 14.8792C2.66258 14.9621 2.82982 15.0057 2.99994 15.006H12.9999C13.1704 15.0058 13.3379 14.9621 13.4867 14.8789C13.6355 14.7958 13.7606 14.676 13.8501 14.5309C13.9395 14.3858 13.9904 14.2203 13.9979 14.05C14.0054 13.8798 13.9693 13.7104 13.8929 13.558ZM6.89294 6.408L6.99994 6.193V2.036L8.99994 2.012V6.007V6.249L9.11094 6.464L10.9369 10.006H5.04894L6.89294 6.408ZM2.99994 14.017L4.54094 11.006H11.4559L13.0029 14.006L2.99994 14.017Z" fill="#C5C5C5"/>
</svg>
